X: 1
T: Waverley Steps
C: R Black
N: Recorded by Jimmy Shand, and often attributed to him
R: reel
Z: 2014 John Chambers <jc:trillian.mit.edu>
S: PDF image of set for The Flowers of Edinburgh from George Meikle 2012
M: 4/4
L: 1/8
K: D
A2 |:\
"D"d2de dcBA | "G"B2Bc BAGF | "D"A2AB "D#/B7"AGFA | "Em"G2E2 "A7"E2A2 |
"D"d2de dcBA | "G"B2Bc BAGF | "A7"A2Bc d2AG | "D"F2D2 "A7"D2A2 :|
"D"D2d2 "Bm"d2cB | "A7"c2e2 e2de | "D"f2d2 "Bm"d2f2 | "Em"edcB "A7"AGFE |
"D"D2d2 "Bm"d2cB | "A7"c2e2 "F#/D7"e2dc | "G"BABc "A7"dBAG | "D"F2D2 "A7"D2FE |
"D"D2d2 "Bm"d2cB | "A7"c2e2 e2de | "D"f2d2 "Bm"d2f2 | "Em"edcB "A7"AGFE |
"D"DEFG A2de | "D"fedB A2GF | "Em"EFGA "A7"Bcde | "D"f2d2 d2 |]
